public/img/overview/icons/white/ruble.svg

<?xml version="1.0" encoding="UTF-8"?>
<svg width="42px" height="48px" viewBox="0 0 42 48" version="1.1" xmlns="http://www.w3.org/2000/svg" xmlns:xlink="http://www.w3.org/1999/xlink">
    <!-- Generator: Sketch 55 (78076) - https://sketchapp.com -->
    <title>whruble-sign copy 2</title>
    <desc>Created with Sketch.</desc>
    <defs>
        <path d="M26.18,30.8571429 C35.49,30.8571429 42,24.4866429 42,15.3290357 C42,6.17142857 35.49,0 26.18,0 L8.3125,0 C7.58767188,0 7,0.575678571 7,1.28571429 L7,23.4248571 L1.3125,23.4248571 C0.587671875,23.4248571 0,24.0005357 0,24.7105714 L0,29.5714286 C0,30.2814643 0.587671875,30.8571429 1.3125,30.8571429 L7,30.8571429 L7,34.2857143 L1.3125,34.2857143 C0.587671875,34.2857143 0,34.8613929 0,35.5714286 L0,39.8571429 C0,40.5671786 0.587671875,41.1428571 1.3125,41.1428571 L7,41.1428571 L7,46.7142857 C7,47.4243214 7.58767188,48 8.3125,48 L14.7175,48 C15.4423281,48 16.03,47.4243214 16.03,46.7142857 L16.03,41.1428571 L33.6875,41.1428571 C34.4123281,41.1428571 35,40.5671786 35,39.8571429 L35,35.5714286 C35,34.8613929 34.4123281,34.2857143 33.6875,34.2857143 L16.03,34.2857143 L16.03,30.8571429 L26.18,30.8571429 Z M16.03,7.36585714 L24.64,7.36585714 C29.75,7.36585714 32.83,10.4847857 32.83,15.3290357 C32.83,20.2396071 29.75,23.4248571 24.5,23.4248571 L16.03,23.4248571 L16.03,7.36585714 Z" id="path-1"></path>
    </defs>
    <g id="Frontend" stroke="none" stroke-width="1" fill="none" fill-rule="evenodd">
        <g id="ruble-sign-copy-2">
            <mask id="mask-2" fill="white">
                <use xlink:href="#path-1"></use>
            </mask>
            <use id="Mask" fill="#FFFFFF" fill-rule="nonzero" xlink:href="#path-1"></use>
        </g>
    </g>
</svg>

<svg width="42" height="48" xmlns="http://www.w3.org/2000/svg" xmlns:xlink="http://www.w3.org/1999/xlink"><defs><path d="M26.18 30.857c9.31 0 15.82-6.37 15.82-15.528C42 6.171 35.49 0 26.18 0H8.313C7.588 0 7 .576 7 1.286v22.139H1.312C.589 23.425 0 24 0 24.71v4.86c0 .71.588 1.286 1.313 1.286H7v3.429H1.312C.589 34.286 0 34.86 0 35.57v4.286c0 .71.588 1.286 1.313 1.286H7v5.571A1.3 1.3 0 0 0 8.313 48h6.404c.725 0 1.313-.576 1.313-1.286v-5.571h17.657c.725 0 1.313-.576 1.313-1.286v-4.286c0-.71-.588-1.285-1.313-1.285H16.03v-3.429h10.15zM16.03 7.366h8.61c5.11 0 8.19 3.119 8.19 7.963 0 4.91-3.08 8.096-8.33 8.096h-8.47V7.365z" id="a"/></defs><use fill="#FFF" xlink:href="#a"/></svg>
